X: 8924
T: Curlicue
R: jig
M: 6/8
K: Fmajor
|:d2 c dff|dfc B3|d2 c dff|g2 f dfc|
d2 c dff|dfc B3|d2 c dff|1 d2 f d_ec:|2 b2 a gag||
|:g3 g2 b|afd f3|f2 g d2 c|d2 f fgd|
g3 g2 b|fdc f3|f2 g d2 c|B2 c cdc:|

